flags/an.svg

<svg width="512" height="512" viewBox="0 0 512 512" fill="none" xmlns="http://www.w3.org/2000/svg">
<rect width="512" height="512" fill="var(--flag-palette-white, #eeeeee)"/>
<path d="M171 0H341V512H171V0Z" fill="var(--flag-palette-bright-red, #d80027)"/>
<path d="M512 171V341H0V171H512Z" fill="var(--flag-palette-blue, #0052b4)"/>
<path d="M256 181L264.287 206.506H291.105L269.409 222.269L277.696 247.774L256 232.011L234.304 247.774L242.591 222.269L220.894 206.506H247.713L256 181Z" fill="var(--flag-palette-white, #eeeeee)"/>
<path d="M302.912 257.176L311.199 282.682H338.017L316.321 298.445L324.608 323.95L302.912 308.187L281.216 323.95L289.503 298.445L267.807 282.682H294.625L302.912 257.176Z" fill="var(--flag-palette-white, #eeeeee)"/>
<path d="M209.088 257.176L217.375 282.682H244.193L222.497 298.445L230.784 323.95L209.088 308.187L187.391 323.95L195.679 298.445L173.982 282.682H200.801L209.088 257.176Z" fill="var(--flag-palette-white, #eeeeee)"/>
<path d="M135.264 219.088L143.551 244.593H170.369L148.673 260.357L156.96 285.862L135.264 270.099L113.567 285.862L121.854 260.357L100.158 244.593H126.976L135.264 219.088Z" fill="var(--flag-palette-white, #eeeeee)"/>
<path d="M376.736 219.088L385.023 244.593H411.842L390.145 260.357L398.433 285.862L376.736 270.099L355.04 285.862L363.327 260.357L341.631 244.593H368.449L376.736 219.088Z" fill="var(--flag-palette-white, #eeeeee)"/>
</svg>

<svg xmlns="http://www.w3.org/2000/svg" width="512" height="512" fill="none"><path fill="var(--flag-palette-white, #eeeeee)" d="M0 0h512v512H0z"/><path fill="var(--flag-palette-bright-red, #d80027)" d="M171 0h170v512H171z"/><path fill="var(--flag-palette-blue, #0052b4)" d="M512 171v170H0V171z"/><path fill="var(--flag-palette-white, #eeeeee)" d="m256 181 8.3 25.5H291l-21.7 15.8 8.3 25.5L256 232l-21.7 15.8 8.3-25.5-21.7-15.8h26.8zm47 76.2 8.2 25.5H338l-21.7 15.7 8.3 25.6-21.7-15.8-21.7 15.8 8.3-25.6-21.7-15.7h26.8zm-94 0 8.4 25.5h26.8l-21.7 15.7 8.3 25.6-21.7-15.8-21.7 15.8 8.3-25.6-21.7-15.7h26.8zM135.3 219l8.3 25.6h26.8l-21.7 15.8 8.3 25.5-21.7-15.8-21.7 15.8 8.3-25.5-21.7-15.8H127zm241.4 0 8.3 25.6h26.8l-21.7 15.8 8.3 25.5-21.7-15.8-21.7 15.8 8.3-25.5-21.7-15.8h26.8z"/></svg>
